!!!COM: Alban (Maria Johannes) Berg
!!!OTL: [T452_Ber-w14p33m114-121]
**kern	**dynam	**kern	**dynam	**kern	**dynam	**kern	**dynam	**kern	**kern	**dynam	**kern	**text	**dynam	**kern	**dynam	**kern	**dynam	**kern	**dynam	**kern	**dynam
*grp:A	*grp:A	*grp:A	*grp:A	*grp:A	*grp:A	*grp:B	*grp:B	*grp:B	*grp:B	*grp:B	*grp:B	*grp:B	*grp:B	*grp:B	*grp:B	*grp:B	*grp:B	*grp:B	*grp:B	*grp:B	*grp:B
*part10	*part10	*part9	*part9	*part8	*part8	*part7	*part7	*part6	*part6	*part6	*part5	*part5	*part5	*part4	*part4	*part3	*part3	*part2	*part2	*part1	*part1
*staff11	*staff11	*staff10	*staff10	*staff9	*staff9	*staff8	*staff8	*staff7	*staff6	*staff6	*staff5	*staff5	*staff5	*staff4	*staff4	*staff3	*staff3	*staff2	*staff2	*staff1	*staff1
*I"Violoncello 1. Div.	*I"Violoncello 1. Div.	*I"Violin II 2. Div.	*I"Violin II 2. Div.	*I"Violin II 1. Div.	*I"Violin II 1. Div.	*I"Violin I	*I"Violin I	*I"Harp	*I"Harp	*I"Harp	*I"Soprano	*I"Soprano	*I"Soprano	*I"Trumpet I in F	*I"Trumpet I in F	*I"Clarinet I in Bb	*I"Clarinet I in Bb	*I"Flute II	*I"Flute II	*I"Flute I	*I"Flute I
*I'Vc. 1.Div.	*	*I'Vln. II 2.Div.	*	*I'Vln. II 1.Div.	*	*I'Vln. I	*	*I'Hp.	*	*	*I'Sop.	*	*	*I'F Tpt.	*	*I'Bb Cl.	*	*I'2.Fl.	*	*I'1.Fl.	*
!!pagebreak:original
*clefC4	*	*clefG2	*	*clefG2	*	*clefG2	*	*clefF4	*clefG2	*	*clefG2	*	*	*clefG2	*	*clefG2	*	*clefG2	*	*clefG2	*
*	*	*	*	*	*	*	*	*	*	*	*	*	*	*ITrd-3c-5	*	*ITrd1c2	*	*	*	*	*
*k[]	*	*k[]	*	*k[]	*	*k[]	*	*k[]	*k[]	*	*k[]	*	*	*k[b-]	*	*k[b-e-]	*	*k[]	*	*k[]	*
*	*	*	*	*	*	*	*	*	*	*	*	*	*	*	*	*	*	*	*	*	*
*M3/4	*	*M3/4	*	*M3/4	*	*M3/4	*	*M3/4	*M3/4	*	*M9/8	*	*	*M3/4	*	*M3/4	*	*M3/4	*	*M3/4	*
=	=	=	=	=	=	=	=	=	=	=	=	=	=	=	=	=	=	=	=	=	=
!	!	!	!	!	!	!	!	!	!	!	!	!	!	!	!	!	!	!	!	!LO:TX:rj:t=1.	!
*	*	*	*	*	*	*	*	*Xtuplet	*Xtuplet	*	*Xtuplet	*	*	*	*	*	*	*Xtuplet	*	*	*
!	!LO:DY:ed=brack	!	!LO:DY:ed=brack	!	!LO:DY:ed=brack	!	!LO:DY:ed=brack	!	!	!	!	!	!	!LO:TX:a:t=(con sord. sempre)	!	!	!LO:DY:ed=brack	!	!	!LO:TX:a:t=accel.	!
8g-X])	pp >	([2.bn	mf	([2.bn)	mf	2.ryy	4ryy	4%3ryy	4%3ryy	.	6ryy	.	.	12ryy	.	12ryy	4ryy	4%3ryy	.	2.ryy	4ryy
!	!	!	!	!	!	!	!	!	!	!	!	!	!	!	!LO:DY:t=%s , ma distinto	!	!	!	!	!	!
.	.	.	.	.	.	.	.	.	.	.	.	.	.	6ryy	4ryy	12ryy	.	.	.	.	.
8r	]	.	>	.	>	.	4ryy	.	.	.	.	.	.	.	.	.	.	.	.	.	.
.	.	.	.	.	.	.	.	.	.	.	12ryy	.	.	.	.	12ryy	.	.	.	.	.
4r	.	.	.	.	.	.	.	.	.	.	6ryy	.	.	12ryy	4ryy	12ryy	.	.	.	.	.
*	*	*	*	*	*	*	*	*	*	*	*	*	*	*	*	*Xneben	*	*	*	*	*
.	.	.	.	.	.	.	.	.	.	.	.	.	.	12ryy	.	12ryy	4ryy	.	.	.	.
.	.	.	.	.	.	.	.	.	.	.	12ryy	4ryy	4ryy	12ryy	.	12ryy	4ryy	.	.	.	.
4r	.	.	.	.	.	.	.	.	.	.	6.ryy	.	.	4ryy	4ryy	12ryy	.	.	.	.	4ryy
.	.	.	.	.	.	.	.	.	.	.	.	.	.	.	.	12ryy	.	.	.	.	.
.	.	.	]]	.	]]	.	4ryy	.	.	.	.	.	.	.	.	12ryy	4ryy	.	.	.	.
=1	=1	=1	=1	=1	=1	=1	=1	=1	=1	=1	=1	=1	=1	=1	=1	=1	=1	=1	=1	=1	=1
*Xtuplet	*	*	*	*	*	*	*	*	*	*	*	*	*	*	*	*neben	*	*	*	*haupt	*
!	!	!	!	!	!	!	!	!	!	!	!	!	!	!	!	!	!	!	!	!LO:TX:t=Beschwindigtes Tempo ( [half-dot]=44-52 )	!
!	!	!	!	!	!	!	!	!	!	!	!	!	!	!	!LO:DY:t=%s poco espr.	!LO:TX:b:i:t=poco espr.	!	!	!	!LO:TX:b:i:t=espr.	!
4%3r	.	4b_	pp	4b_	pp	12ryy	.	4%3ryy	4%3ryy	.	6.ryy	4ryy	.	2ryy	4ryy	2ryy	.	4%3ryy	.	2ryy	.
*	*	*	*	*	*	*Xhaupt	*	*	*	*	*	*	*	*	*	*Xtuplet	*	*	*	*	*
!	!	!	!	!	!	!	!LO:DY:t=molto %s	!	!	!	!	!	!	!	!	!	!	!	!	!	!
.	.	.	.	.	.	12ryy	4ryy	.	.	.	.	.	.	.	.	.	.	.	.	.	.
.	.	.	.	.	.	12ryy	.	.	.	.	.	.	.	.	.	.	.	.	.	.	4ryy
.	.	12b])	.	12b])	.	12ryy	.	.	.	.	12ryy	.	.	.	.	.	4ryy	.	.	.	.
.	.	[6bn	< [ > ]	[6bn	< [ > ]	12ryy	.	.	.	.	6ryy	4ryy	.	.	.	.	.	.	.	.	.
.	.	.	.	.	.	12ryy	.	.	.	.	.	.	.	.	.	.	.	.	.	.	4ryy
.	.	4r	.	4r	.	12ryy	.	.	.	.	6ryy	.	.	4ryy	4ryy	4ryy	4ryy	.	.	4ryy	.
.	.	.	.	.	.	12ryy	.	.	.	.	.	.	.	.	.	.	.	.	.	.	.
.	.	.	.	.	.	12ryy	.	.	.	.	12ryy	4ryy	.	.	.	.	4ryy	.	.	.	4ryy
=2	=2	=2	=2	=2	=2	=2	=2	=2	=2	=2	=2	=2	=2	=2	=2	=2	=2	=2	=2	=2	=2
*	*	*Xtuplet	*	*Xtuplet	*	*	*	*	*	*	*	*	*	*	*	*	*	*	*	*	*
4%3r	.	4%3r	.	4%3r	.	12ryy	.	4%3ryy	4%3ryy	.	6.ryy	.	.	4ryy	4ryy	4%3ryy	.	2ryy	4ryy	2ryy	4ryy
.	.	.	.	.	.	12ryy	.	.	.	.	.	.	.	.	.	.	.	.	.	.	.
.	.	.	.	.	.	12ryy	.	.	.	.	.	.	.	.	.	.	.	.	.	.	.
.	.	.	.	.	.	12ryy	.	.	.	.	6.ryy	4ryy	.	4ryy	.	.	.	.	4ryy	.	4ryy
.	.	.	.	.	.	12ryy	.	.	.	.	.	.	.	.	.	.	.	.	.	.	.
.	.	.	.	.	.	12ryy	.	.	.	.	.	.	.	.	.	.	.	.	4ryy	.	4ryy
.	.	.	.	.	.	12ryy	.	.	.	.	12ryy	.	.	12ryy	.	.	.	4ryy	.	4ryy	.
.	.	.	.	.	.	12ryy	.	.	.	.	6ryy	4ryy	.	6ryy	.	.	.	.	.	.	.
.	.	.	.	.	.	12ryy	.	.	.	.	.	.	.	.	.	.	.	.	4ryy	.	4ryy
=3	=3	=3	=3	=3	=3	=3	=3	=3	=3	=3	=3	=3	=3	=3	=3	=3	=3	=3	=3	=3	=3
4%3r	.	4%3r	.	4%3r	.	12ryy	.	4%3ryy	4%3ryy	.	6ryy	.	.	6ryy	.	4ryy	4ryy	4ryy	4ryy	4ryy	4ryy
.	.	.	.	.	.	12ryy	.	.	.	.	.	.	.	.	.	.	4ryy	.	4ryy	.	4ryy
.	.	.	.	.	.	12ryy	.	.	.	.	12ryy	4ryy	.	12ryy	4ryy	.	4ryy	.	4ryy	.	4ryy
.	.	.	.	.	.	12ryy	.	.	.	.	6.ryy	.	.	4ryy	4ryy	8.ryy	4ryy	8.ryy	4ryy	8.ryy	4ryy
.	.	.	.	.	.	12ryy	.	.	.	.	.	.	.	.	.	.	.	.	.	.	.
.	.	.	.	.	.	12ryy	.	.	.	.	.	.	.	.	.	.	.	.	.	.	.
.	.	.	.	.	.	.	.	.	.	.	.	.	.	.	.	16ryy	.	16ryy	.	16ryy	.
.	.	.	.	.	.	12ryy	.	.	.	.	6.ryy	4ryy	.	4ryy	4ryy	4ryy	4ryy	4ryy	4ryy	4ryy	4ryy
.	.	.	.	.	.	12ryy	.	.	.	.	.	.	.	.	.	.	.	.	.	.	4ryy
.	.	.	.	.	.	12ryy	.	.	.	.	.	.	.	.	.	.	.	.	.	.	4ryy
!!pagebreak:original
=4	=4	=4	=4	=4	=4	=4	=4	=4	=4	=4	=4	=4	=4	=4	=4	=4	=4	=4	=4	=4	=4
!	!	!LO:TX:a:t=pizz.	!	!LO:TX:a:t=pizz.	!	!	!	!	!	!	!	!	!	!	!	!	!	!	!	!	!
*	*	*	*	*	*	*	*	*	*	*	*	*	*	*	*	*tuplet	*	*	*	*	*
4%3r	.	8bn`L	mp >	8dd#X`L	mp >	8ryy	.	4%3ryy	4ryy	.	12ryy	.	.	12ryy	.	12ryy	4ryy	8ryy	.	2.ryy	4ryy
.	.	.	.	.	.	.	.	.	.	.	6ryy	4ryy	.	12ryy	4ryy	12ryy	.	.	.	.	.
.	.	8b-X`	.	8ddn`	.	8ryy	.	.	.	.	.	.	.	.	.	.	.	8ryy	.	.	.
!	!	!	!	!	!	!	!	!	!	!	!	!	!	!	!	!	!LO:DY:t=molto %s	!	!	!	!
.	.	.	.	.	.	.	.	.	.	.	.	.	.	12ryy	.	12ryy	4ryy	.	.	.	4ryy
.	.	8ddn`	.	8ff#X`	.	4ryy	.	.	4ryy	.	6ryy	.	.	4ryy	.	12ryy	.	4ryy	.	.	4ryy
.	.	.	.	.	.	.	.	.	.	.	.	.	.	.	.	12ryy	.	.	.	.	.
.	.	8an`	.	8een`	.	.	.	.	.	.	.	.	.	.	.	.	.	.	.	.	.
.	.	.	.	.	.	.	.	.	.	.	12ryy	4ryy	.	.	.	12ryy	.	.	.	.	.
*	*	*	*	*	*	*	*	*	*tuplet	*	*	*	*	*	*	*	*	*	*	*	*
.	.	8bn`	.	8gg#X`	.	4ryy	4ryy	.	36ryy	4ryy	6.ryy	.	.	4ryy	.	12ryy	4ryy	4ryy	.	.	4ryy
!	!	!	!	!	!	!	!	!	!	!	!	!	!	!	!	!	!	!	!	!LO:TX:b:i:t=poco	!
.	.	.	.	.	.	.	.	.	36ryy	.	.	.	.	.	.	.	.	.	.	.	.
.	.	.	.	.	.	.	.	.	36ryy	.	.	.	.	.	.	.	.	.	.	.	.
.	.	.	.	.	.	.	.	.	36ryy	.	.	.	.	.	.	12ryy	.	.	.	.	4ryy
.	.	.	.	.	.	.	.	.	36ryy	.	.	.	.	.	.	.	.	.	.	.	.
.	.	8een`J	]	8ggn`J	]	.	.	.	.	.	.	.	.	.	.	.	.	.	.	.	.
!	!	!	!	!	!	!	!	!	!	!	!	!	!	!	!	!	!	!	!	!LO:TX:i:t=morendo	!
.	.	.	.	.	.	.	.	.	36ryy	.	.	.	.	.	.	.	.	.	.	.	.
.	.	.	.	.	.	.	.	.	36ryy	.	.	.	.	.	.	12ryy	.	.	.	.	.
.	.	.	.	.	.	.	.	.	36ryy	.	.	.	.	.	.	.	.	.	.	.	.
.	.	.	.	.	.	.	4ryy	.	36ryy	.	.	.	.	.	.	.	.	.	.	.	4ryy
=5	=5	=5	=5	=5	=5	=5	=5	=5	=5	=5	=5	=5	=5	=5	=5	=5	=5	=5	=5	=5	=5
*	*	*	*	*	*	*haupt	*	*	*	*	*	*	*	*	*	*	*	*tuplet	*	*	*
!	!	!	!	!	!	!	!	!	!LO:TX:t=P:problem:cross-bar beaming	!	!	!	!	!	!	!	!	!	!	!	!
!	!	!LO:TX:a:t=arco	!	!LO:TX:a:t=arco	!	!LO:TX:a:t=(tutti)	!LO:DY:t=%s , ma espr.	!	!	!	!	!	!	!	!	!	!	!	!	!	!
4%3r	.	([4dddn	pp <	([4fffn	pp <	2ryy	4ryy	4%3ryy	8ryy	.	6.ryy	4ryy	.	8ryy	.	8ryy	4ryy	12ryy	.	4ryy	.
*	*	*	*	*	*	*	*	*	*	*	*	*	*	*	*	*	*	*	*	*	*
!	!	!	!	!	!	!	!	!	!	!	!	!	!	!	!	!	!	!LO:TX:a:t=(Flzg.)	!	!	!
!	!	!	!	!	!	!	!	!	!	!	!	!	!	!	!	!	!	!LO:N:O=trem2	!	!	!
.	.	.	.	.	.	.	.	.	.	.	.	.	.	.	.	.	.	12ryy	4ryy	.	.
.	.	.	.	.	.	.	.	.	.	.	.	.	.	.	.	.	.	.	.	.	.
!	!	!	!	!	!	!	!	!	!	!	!	!	!	!LO:TX:a:t=(con sord.) m. d. Gesang	!	!	!	!	!	!	!
.	.	.	.	.	.	.	.	.	8ryy	4ryy	.	.	.	8ryy	4ryy	8ryy	.	.	.	.	.
.	.	.	.	.	.	.	.	.	.	.	.	.	.	.	.	.	.	.	.	.	.
!	!	!	!	!	!	!	!	!	!	!	!	!	!	!	!	!	!	!LO:N:O=trem2	!	!	!
.	.	.	.	.	.	.	.	.	.	.	.	.	.	.	.	.	.	12ryy	.	.	.
.	.	.	.	.	.	.	.	.	.	.	.	.	.	.	.	.	.	.	.	.	.
.	.	.	.	.	.	.	.	.	.	.	.	.	.	.	.	.	.	.	.	.	.
.	.	.	.	.	.	.	.	.	.	.	.	.	.	.	.	.	.	.	.	.	.
!	!	!	!	!	!	!	!	!	!	!	!	!	!	!	!	!	!	!LO:TUP:num=3	!	!	!
!	!	!	!	!	!	!	!	!	!	!	!	!	!	!	!	!	!	!LO:N:O=trem2	!	!	!
.	.	12dddL]	[	12fffL]	[	.	.	.	4ryy	.	12ryy	4ryy	.	12ryy	.	4ryy	.	12ryy	.	4ryy	.
.	.	.	.	.	.	.	.	.	.	.	.	.	.	.	.	.	.	.	.	.	.
.	.	.	.	.	.	.	.	.	.	.	.	.	.	.	.	.	.	.	.	.	.
.	.	.	.	.	.	.	.	.	.	.	.	.	.	.	4ryy	.	.	.	.	.	.
!	!	!	!	!	!	!	!	!	!	!	!	!	!	!	!	!	!	!LO:N:O=trem2	!	!	!
.	.	12ccc#X	.	12eeen	.	.	.	.	.	.	6ryy	.	.	6ryy	.	.	.	12ryy	.	.	.
.	.	.	.	.	.	.	.	.	.	.	.	.	.	.	.	.	.	.	.	.	.
.	.	.	.	.	.	.	.	.	.	.	.	.	.	.	.	.	.	.	.	.	.
.	.	.	.	.	.	.	.	.	.	.	.	.	.	.	.	.	.	.	.	.	.
!	!	!	!	!	!	!	!	!	!	!	!	!	!	!	!	!	!	!LO:N:O=trem2	!	!	!
.	.	12ggnJ	>	12cccnJ	>	.	4ryy	.	.	.	.	.	.	.	.	.	.	12ryy	.	.	.
.	.	.	.	.	.	.	4ryy	.	.	.	.	.	.	.	.	.	.	.	.	.	.
.	.	.	.	.	.	.	.	.	.	.	.	.	.	.	.	.	.	.	.	.	.
.	.	.	.	.	.	.	.	.	.	.	.	.	.	.	.	.	.	.	.	.	.
!	!	!	!	!	!	!	!	!	!	!	!	!	!	!	!	!	!	!LO:N:O=trem2	!	!	!
.	.	8ff#X)	.	8bbn)	.	4ryy	.	.	4ryy	.	6ryy	.	.	12ryy	.	4ryy	.	12ryy	.	12ryy	.
.	.	.	.	.	.	.	.	.	.	.	.	.	.	.	.	.	.	.	.	.	.
.	.	.	.	.	.	.	.	.	.	.	.	.	.	.	.	.	.	.	.	.	.
.	.	.	.	.	.	.	.	.	.	.	.	.	.	.	.	.	.	.	.	.	.
!	!	!	!	!	!	!	!	!	!	!	!	!	!	!	!	!	!	!	!	!LO:TX:a:t=(Flzg.)	!
!	!	!	!	!	!	!	!	!	!	!	!	!	!	!	!	!	!	!	!	!LO:N:O=trem2	!
.	.	.	.	.	.	.	.	.	.	.	.	.	.	12ryy	.	.	.	12ryy	.	12ryy	4ryy
.	.	.	.	.	.	.	.	.	.	.	.	.	.	.	.	.	.	.	.	.	.
.	.	8r	]	8r	]	.	.	.	.	.	.	.	.	.	.	.	.	.	.	.	.
.	.	.	.	.	.	.	.	.	.	.	.	.	.	.	.	.	.	.	.	.	.
!	!	!	!	!	!	!	!	!	!	!	!	!	!	!	!	!	!	!	!	!LO:N:O=trem2	!
.	.	.	.	.	.	.	.	.	.	.	12ryy	4ryy	.	12ryy	.	.	.	12ryy	.	12ryy	.
.	.	.	.	.	.	.	.	.	.	.	.	.	.	.	.	.	.	.	.	.	.
.	.	.	.	.	.	.	.	.	.	.	.	.	.	.	.	.	.	.	.	.	.
.	.	.	.	.	.	.	4ryy	.	.	.	.	.	.	.	.	.	.	.	.	.	.
=6	=6	=6	=6	=6	=6	=6	=6	=6	=6	=6	=6	=6	=6	=6	=6	=6	=6	=6	=6	=6	=6
!	!	!	!	!	!	!	!	!	!	!	!	!	!	!LO:TX:a:t=Flzg.	!	!	!	!	!	!LO:TUP:num=3	!
!	!	!	!	!	!	!	!	!	!	!	!	!	!	!LO:N:O=trem2	!	!	!	!	!	!LO:N:O=trem2	!
4%3r	.	(2gg#X	<	(2ddd#X	<	2ryy	4ryy	4%3ryy	4%3ryy	.	6.ryy	.	.	4ryy	.	4%3ryy	.	4%3ryy	.	12ryy	.
.	.	.	.	.	.	.	.	.	.	.	.	.	.	.	.	.	.	.	.	.	.
.	.	.	.	.	.	.	.	.	.	.	.	.	.	.	.	.	.	.	.	.	.
.	.	.	.	.	.	.	.	.	.	.	.	.	.	.	.	.	.	.	.	.	.
!	!	!	!	!	!	!	!	!	!	!	!	!	!	!	!	!	!	!	!	!LO:N:O=trem2	!
.	.	.	.	.	.	.	.	.	.	.	.	.	.	.	.	.	.	.	.	12ryy	.
.	.	.	.	.	.	.	.	.	.	.	.	.	.	.	.	.	.	.	.	.	.
.	.	.	.	.	.	.	.	.	.	.	.	.	.	.	.	.	.	.	.	.	.
.	.	.	.	.	.	.	.	.	.	.	.	.	.	.	.	.	.	.	.	.	.
!	!	!	!	!	!	!	!	!	!	!	!	!	!	!	!	!	!	!	!	!LO:N:O=trem2	!
.	.	.	.	.	.	.	.	.	.	.	.	.	.	.	.	.	.	.	.	12ryy	.
.	.	.	.	.	.	.	.	.	.	.	.	.	.	.	.	.	.	.	.	.	.
.	.	.	.	.	.	.	.	.	.	.	.	.	.	.	.	.	.	.	.	.	.
.	.	.	.	.	.	.	.	.	.	.	.	.	.	.	.	.	.	.	.	.	.
!	!	!	!	!	!	!	!	!	!	!	!	!	!	!	!	!	!	!	!	!LO:TUP:num=3	!
!	!	!	!	!	!	!	!	!	!	!	!	!	!	!LO:N:O=trem2	!	!	!	!	!	!LO:N:O=trem2	!
.	.	.	.	.	.	.	.	.	.	.	6.ryy	4ryy	.	4ryy	.	.	.	.	.	12ryy	.
.	.	.	.	.	.	.	.	.	.	.	.	.	.	.	.	.	.	.	.	.	.
.	.	.	.	.	.	.	.	.	.	.	.	.	.	.	.	.	.	.	.	.	.
.	.	.	.	.	.	.	.	.	.	.	.	.	.	.	.	.	.	.	.	.	.
!	!	!	!	!	!	!	!	!	!	!	!	!	!	!	!	!	!	!	!	!LO:N:O=trem2	!
.	.	.	.	.	.	.	.	.	.	.	.	.	.	.	.	.	.	.	.	12ryy	.
.	.	.	.	.	.	.	.	.	.	.	.	.	.	.	.	.	.	.	.	.	.
.	.	.	[	.	[	.	4ryy	.	.	.	.	.	.	.	.	.	.	.	.	.	.
.	.	.	.	.	.	.	.	.	.	.	.	.	.	.	.	.	.	.	.	.	.
!	!	!	!	!	!	!	!	!	!	!	!	!	!	!	!	!	!	!	!	!LO:N:O=trem2	!
.	.	.	>	.	>	.	4ryy	.	.	.	.	.	.	.	.	.	.	.	.	12ryy	.
.	.	.	.	.	.	.	.	.	.	.	.	.	.	.	.	.	.	.	.	.	.
.	.	.	.	.	.	.	.	.	.	.	.	.	.	.	.	.	.	.	.	.	.
.	.	.	.	.	.	.	.	.	.	.	.	.	.	.	.	.	.	.	.	.	.
!	!	!	!	!	!	!	!	!	!	!	!	!	!	!	!	!	!	!	!	!LO:TUP:num=3	!
!	!	!	!	!	!	!	!	!	!	!	!	!	!	!	!	!	!	!	!	!LO:N:O=trem2	!
.	.	[4g#X)	.	4ffn)	.	4ryy	.	.	.	.	12ryy	.	.	12ryy	.	.	.	.	.	12ryy	.
.	.	.	.	.	.	.	.	.	.	.	.	.	.	.	.	.	.	.	.	.	.
.	.	.	.	.	.	.	.	.	.	.	.	.	.	.	.	.	.	.	.	.	.
.	.	.	.	.	.	.	.	.	.	.	.	.	.	.	.	.	.	.	.	.	.
!	!	!	!	!	!	!	!	!	!	!	!	!	!	!LO:N:O=trem2	!	!	!	!	!	!LO:N:O=trem2	!
.	.	.	.	.	.	.	.	.	.	.	6ryy	4ryy	.	6ryy	.	.	.	.	.	12ryy	.
.	.	.	.	.	.	.	.	.	.	.	.	.	.	.	.	.	.	.	.	.	.
.	.	.	.	.	.	.	.	.	.	.	.	.	.	.	.	.	.	.	.	.	.
.	.	.	.	.	.	.	.	.	.	.	.	.	.	.	.	.	.	.	.	.	.
!	!	!	!	!	!	!	!	!	!	!	!	!	!	!	!	!	!	!	!	!LO:N:O=trem2	!
.	.	.	.	.	.	.	.	.	.	.	.	.	.	.	.	.	.	.	.	12ryy	.
.	.	.	.	.	.	.	.	.	.	.	.	.	.	.	.	.	.	.	.	.	.
.	.	.	.	.	.	.	.	.	.	.	.	.	.	.	.	.	.	.	.	.	.
.	.	.	]]	.	]]	.	4ryy	.	.	.	.	.	.	.	.	.	.	.	.	.	.
=7	=7	=7	=7	=7	=7	=7	=7	=7	=7	=7	=7	=7	=7	=7	=7	=7	=7	=7	=7	=7	=7
*	*	*	*	*tremolo	*	*	*	*	*Xtuplet	*	*	*	*	*tuplet	*	*tuplet	*	*Xtuplet	*	*	*
*	*	*	*	*tuplet	*	*	*	*	*	*	*	*	*	*	*	*	*	*	*	*	*
!	!	!	!	!LO:TUP:r=6.	!	!	!	!	!	!	!	!	!	!	!	!	!	!	!	!	!
!	!	!	!	!LO:TUP:num=3	!	!	!	!	!	!	!	!	!	!LO:TX:t=P:problem:tremoli	!	!LO:TX:t=P:problem: tuplets	!	!	!	!	!
!	!	!	!	!	!	!	!	!	!	!	!	!	!	!LO:N:O=trem2	!	!LO:TUP:r=4	!	!	!	!	!
4%3r	.	8g#]	.	(48ff#XLLL	.	4ryy	4ryy	4%3ryy	4%3ryy	.	6ryy	.	.	12ryy	.	12ryy	.	4%3ryy	.	8ryy	.
.	.	.	.	48ff#X	.	.	.	.	.	.	.	.	.	.	.	.	.	.	.	.	.
.	.	.	.	.	.	.	.	.	.	.	.	.	.	.	.	.	.	.	.	.	.
.	.	.	.	48ff#X	.	.	.	.	.	.	.	.	.	.	.	.	.	.	.	.	.
.	.	.	.	48ff#X	.	.	.	.	.	.	.	.	.	.	.	.	.	.	.	.	.
!	!	!	!	!	!	!	!	!	!	!	!	!	!	!LO:N:O=trem2	!	!	!	!	!	!	!
.	.	.	.	48een	.	.	.	.	.	.	.	.	.	12ryy	.	12ryy	.	.	.	.	.
.	.	.	.	.	.	.	.	.	.	.	.	.	.	.	.	.	.	.	.	.	.
.	.	.	.	48een	.	.	.	.	.	.	.	.	.	.	.	.	.	.	.	.	.
.	.	8r	.	48een	.	.	.	.	.	.	.	.	.	.	.	.	.	.	.	8ryy	.
.	.	.	.	48een	.	.	.	.	.	.	.	.	.	.	.	.	.	.	.	.	.
!	!	!	!	!	!	!	!	!	!	!	!	!	!	!	!	!LO:TX:a:t=Flzg.	!	!	!	!	!
!	!	!	!	!	!	!	!	!	!	!	!	!	!	!LO:N:O=trem2	!	!LO:N:O=trem2	!	!	!	!	!
.	.	.	.	48ddn	.	.	.	.	.	.	12ryy	4ryy	.	12ryy	.	12ryy	4ryy	.	.	.	.
.	.	.	.	48ddn	.	.	.	.	.	.	.	.	.	.	.	.	.	.	.	.	.
.	.	.	.	48ddn	.	.	.	.	.	.	.	.	.	.	.	.	.	.	.	.	.
.	.	.	.	48ddnJJJ	.	.	.	.	.	.	.	.	.	.	.	.	.	.	.	.	.
*	*	*	*	*Xtremolo	*	*	*	*	*	*	*	*	*	*	*	*	*	*	*	*	*
!	!	!	!	!	!	!	!	!	!	!	!	!	!	!	!	!LO:TUP:r=4	!	!	!	!	!
!	!	!	!	!	!	!	!	!	!	!	!	!	!	!LO:N:O=trem2	!	!LO:N:O=trem2	!	!	!	!	!
.	.	4r	.	[4ccn	.	8.ryy	4ryy	.	.	.	6.ryy	.	.	4ryy	.	12ryy	.	.	.	4ryy	.
.	.	.	.	.	.	.	.	.	.	.	.	.	.	.	.	.	.	.	.	.	.
.	.	.	.	.	.	.	.	.	.	.	.	.	.	.	.	.	.	.	.	.	.
!	!	!	!	!	!	!	!	!	!	!	!	!	!	!	!	!LO:N:O=trem2	!	!	!	!	!
.	.	.	.	.	.	.	.	.	.	.	.	.	.	.	.	12ryy	.	.	.	.	.
.	.	.	.	.	.	.	.	.	.	.	.	.	.	.	.	.	.	.	.	.	.
.	.	.	.	.	.	.	.	.	.	.	.	.	.	.	.	.	.	.	.	.	.
.	.	.	.	.	.	.	.	.	.	.	.	.	.	.	.	.	.	.	.	.	.
.	.	.	.	.	.	.	.	.	.	.	.	.	.	.	.	.	.	.	.	.	.
!	!	!	!	!	!	!	!	!	!	!	!	!	!	!	!	!LO:N:O=trem2	!	!	!	!	!
.	.	.	.	.	.	.	.	.	.	.	.	.	.	.	.	12ryy	.	.	.	.	.
.	.	.	.	.	.	16ryy	4ryy	.	.	.	.	.	.	.	.	.	.	.	.	.	.
.	.	.	.	.	.	.	.	.	.	.	.	.	.	.	.	.	.	.	.	.	.
.	.	.	.	.	.	.	.	.	.	.	.	.	.	.	.	.	.	.	.	.	.
!	!	!	!	!	!	!	!	!	!	!	!	!	!	!	!	!LO:TUP:r=4	!	!	!	!	!
!	!	!	!	!	!	!	!	!	!	!	!	!	!	!LO:N:O=trem2	!	!LO:N:O=trem2	!	!	!	!	!
.	.	4r	.	12ccL]	.	4ryy	4ryy	.	.	.	6.ryy	4ryy	.	4ryy	.	12ryy	.	.	.	4ryy	.
.	.	.	.	.	.	.	.	.	.	.	.	.	.	.	.	.	.	.	.	.	.
.	.	.	.	.	.	.	.	.	.	.	.	.	.	.	.	.	.	.	.	.	.
.	.	.	.	.	.	.	.	.	.	.	.	.	.	.	.	.	.	.	.	.	.
*	*	*	*	*tremolo	*	*	*	*	*	*	*	*	*	*	*	*	*	*	*	*	*
!	!	!	!	!LO:TX:T=P:problem:tremoli	!	!	!	!	!	!	!	!	!	!	!	!LO:N:O=trem2	!	!	!	!	!
.	.	.	.	48ddnJLLL	.	.	.	.	.	.	.	.	.	.	.	12ryy	.	.	.	.	.
.	.	.	.	48ddn	.	.	.	.	.	.	.	.	.	.	.	.	.	.	.	.	.
.	.	.	.	48ddn	.	.	.	.	.	.	.	.	.	.	.	.	.	.	.	.	.
.	.	.	.	48ddn	.	.	.	.	.	.	.	.	.	.	.	.	.	.	.	.	.
!	!	!	!	!	!	!	!	!	!	!	!	!	!	!	!	!LO:N:O=trem2	!	!	!	!	!
.	.	.	.	48ee-X	.	.	.	.	.	.	.	.	.	.	.	12ryy	.	.	.	.	.
.	.	.	.	48ee-X	.	.	.	.	.	.	.	.	.	.	.	.	.	.	.	.	.
.	.	.	.	48ee-X	.	.	.	.	.	.	.	.	.	.	.	.	.	.	.	.	.
.	.	.	.	48ee-X)JJJ	.	.	.	.	.	.	.	.	.	.	.	.	.	.	.	.	.
*	*	*	*	*	*	*	*	*	*	*	*	*	*	*	*	*	*	*	*	*	*
*	*	*	*	*Xtremolo	*	*	*	*	*	*	*	*	*	*	*	*	*	*	*	*	*
=	=	=	=	=	=	=	=	=	=	=	=	=	=	=	=	=	=	=	=	=	=
*-	*-	*-	*-	*-	*-	*-	*-	*-	*-	*-	*-	*-	*-	*-	*-	*-	*-	*-	*-	*-	*-
!!!system-decoration: [s1,s2,s3,s4,s5{(s6,s7)}s8,s9,s10,s11]
!!!RDF**kern: i = editorial accidental
!!!RDF**kern: > = above
!!!RDF**kern: < = below
!!!RDF**kern: N = hairpin accent
